X: 84
T: Missa Ista est speciosa / Gloria
N: Derived from Rue1018b-Missa_Ista_est_speciosa-Gloria.krn
C: Pierre de la Rue
%%abc-version 2.0
%%abcx-abcm2ps-target-version 5.9.1 (29 Sep 2008)
%%abc-creator hum2abc beta
%%abcx-conversion-date 2019/02/17 08:01:13
%%abc-edited-by Jesse Rodin
%%abc-edited-by Chris Gage 05-16-2013
%%abcx-initial-encoding-date 2013/08/02/
%%humdrum-veritas 2466729291
%%humdrum-veritas-data 1069103050
%%linebreak <none>
%%barnumbers 0
L: 1/4
M: 4/2
Q: 1/2=120
V: 1 clef=treble
V: 2 clef=treble-8
V: 3 clef=treble-8
V: 4 clef=bass
V: 5 clef=bass
K: C
[V:1] E8 | 
[V:2] e8 | 
[V:3] B8- | 
[V:4] E,8 | 
[V:5] z8 | 
[V:1] G8 | 
[V:2] e8 | 
[V:3] B8 | 
[V:4] E,8 | 
[V:5] z8 | 
[V:1] A4A4 | 
[V:2] c4d4 | 
[V:3] A8 | 
[V:4] F,4F,4 | 
[V:5] z8 | 
[V:1] G4z2G2 | 
[V:2] e8 | 
[V:3] B8 | 
[V:4] E,8 | 
[V:5] z8 | 
[V:1] G2G2E2G2- | 
[V:2] z4z2d2 | 
[V:3] B8- | 
[V:4] z2G,2G,2G,2 | 
[V:5] z8 | 
[V:1] G2FED2G2 | 
[V:2] e2d2B2d2- | 
[V:3] B8 | 
[V:4] E,2G,4F,E, | 
[V:5] z8 | 
[V:1] F2G2EFGA | 
[V:2] d2B2c2e2 | 
[V:3] z8 | 
[V:4] D,2G,2C,4 | 
[V:5] z8 | 
[V:1] B2A3^GG2 | 
[V:2] dcBAB4 | 
[V:3] z8 | 
[V:4] G,2A,2E,4 | 
[V:5] z8 | 
[V:1] A8 | 
[V:2] A8 | 
[V:3] c8- | 
[V:4] z4E,4 | 
[V:5] A,,4A,,2A,,2 | 
[V:1] z8 | 
[V:2] z8 | 
[V:3] c8 | 
[V:4] E,2E,2G,4- | 
[V:5] C,6B,,A,, | 
[V:1] z8 | 
[V:2] z8 | 
[V:3] B8 | 
[V:4] G,2F,E,D,3E, | 
[V:5] G,,3A,,B,,C,D,2- | 
[V:1] z8 | 
[V:2] z8 | 
[V:3] A8 | 
[V:4] F,G,A,4E,2- | 
[V:5] D,2A,,4C,2- | 
[V:1] z8 | 
[V:2] z8 | 
[V:3] G4F4 | 
[V:4] E,2D,2C,4 | 
[V:5] C,2B,,2A,,2A,,2- | 
[V:1] z2A2A2A2 | 
[V:2] z8 | 
[V:3] E2E4D2 | 
[V:4] C,4A,,4 | 
[V:5] A,,G,,F,,E,,F,,4 | 
[V:1] G2E4G2 | 
[V:2] z2e2e2e2 | 
[V:3] E8 | 
[V:4] B,,8 | 
[V:5] E,,8 | 
[V:1] F2D3EFG | 
[V:2] d2B4d2 | 
[V:3] z8 | 
[V:4] z8 | 
[V:5] z8 | 
[V:1] A3G/F/EDA2- | 
[V:2] c2A3Bcd | 
[V:3] z8 | 
[V:4] z8 | 
[V:5] z8 | 
[V:1] A2G4^F2 | 
[V:2] B2G2A4 | 
[V:3] z8 | 
[V:4] z8 | 
[V:5] z8 | 
[V:1] G8 | 
[V:2] G8 | 
[V:3] z8 | 
[V:4] z4B,,3C, | 
[V:5] z2G,,2G,,3A,, | 
[V:1] z2E2E3F | 
[V:2] z2G2G3A | 
[V:3] z8 | 
[V:4] D,2E,4D,C, | 
[V:5] B,,2C,4B,,A,, | 
[V:1] G2A4GF | 
[V:2] B2c4BA | 
[V:3] z8 | 
[V:4] B,,2A,,2C,2D,2 | 
[V:5] G,,2F,,2A,,2B,,2 | 
[V:1] E2G2A2B2 | 
[V:2] G2CDEFG2 | 
[V:3] E8- | 
[V:4] E,3D,C,2B,,2 | 
[V:5] C,3B,,A,,2G,,2 | 
[V:1] c8 | 
[V:2] C2e4c2 | 
[V:3] E8 | 
[V:4] A,,4A,,4 | 
[V:5] A,,4C,4 | 
[V:1] B4B2G2- | 
[V:2] d2B4B2- | 
[V:3] D8 | 
[V:4] B,,8- | 
[V:5] G,,8- | 
[V:1] G2FED2G2- | 
[V:2] B2B3cde | 
[V:3] G8- | 
[V:4] B,,8 | 
[V:5] G,,8- | 
[V:1] GFE2D4 | 
[V:2] d2c3BB2 | 
[V:3] G8 | 
[V:4] z8 | 
[V:5] G,,8 | 
[V:1] C8 | 
[V:2] c4z2e2 | 
[V:3] A8 | 
[V:4] z2A,,2A,,2A,,2 | 
[V:5] z8 | 
[V:1] z2G2G2G2 | 
[V:2] e2e2e4 | 
[V:3] c8 | 
[V:4] E,2C,3D,E,F, | 
[V:5] z8 | 
[V:1] G4G4 | 
[V:2] d2B4B2 | 
[V:3] B8 | 
[V:4] G,4G,4 | 
[V:5] z2E,2E,2E,2 | 
[V:1] A3GFEE2- | 
[V:2] c3BAGFE | 
[V:3] A8 | 
[V:4] E,4z4 | 
[V:5] A,,2A,,2D,2C,2 | 
[V:1] E2D2E4 | 
[V:2] F4E4 | 
[V:3] A8 | 
[V:4] z8 | 
[V:5] D,4A,,4 | 
[V:1] z8 | 
[V:2] E8 | 
[V:3] B8 | 
[V:4] z2G,2G,2G,2 | 
[V:5] z8 | 
[V:1] z8 | 
[V:2] z8 | 
[V:3] z8 | 
[V:4] E,3F,G,2A,2- | 
[V:5] z2C,2C,2C,2 | 
[V:1] z8 | 
[V:2] z8 | 
[V:3] z8 | 
[V:4] A,2G,F,E,2D,2- | 
[V:5] A,,3B,,C,2D,2- | 
[V:1] z8 | 
[V:2] z8 | 
[V:3] z8 | 
[V:4] D,2G,3^F,F,2 | 
[V:5] D,2C,B,,A,,4 | 
[V:1] z8 | 
[V:2] z2B2B2B2 | 
[V:3] z8 | 
[V:4] G,4z2G,2- | 
[V:5] G,,8- | 
[V:1] z8 | 
[V:2] G3ABGBc | 
[V:3] z8 | 
[V:4] G,2G,2D,2G,2- | 
[V:5] G,,8- | 
[V:1] z8 | 
[V:2] d2c3BB2 | 
[V:3] z8 | 
[V:4] G,F,E,2D,4 | 
[V:5] G,,8 | 
[V:1] z2G2G2G2 | 
[V:2] c4z2c2 | 
[V:3] z8 | 
[V:4] C,8 | 
[V:5] z8 | 
[V:1] E3FGEGA | 
[V:2] c2c2e2dc | 
[V:3] z8 | 
[V:4] z8 | 
[V:5] z8 | 
[V:1] B2A3^GG2 | 
[V:2] dcBAB4 | 
[V:3] z8 | 
[V:4] z8 | 
[V:5] z8 | 
[V:1] A2c4c2 | 
[V:2] A2A3GEF | 
[V:3] e8 | 
[V:4] z8 | 
[V:5] z8 | 
[V:1] B2G4F2 | 
[V:2] G2B2A2d2 | 
[V:3] d8 | 
[V:4] z2G,2A,2A,2 | 
[V:5] G,,4D,4 | 
[V:1] G4G4 | 
[V:2] dcBAB4 | 
[V:3] d8 | 
[V:4] G,3F,/E,/D,4 | 
[V:5] G,,8 | 
[V:1] E3DC4 | 
[V:2] c8 | 
[V:3] c8 | 
[V:4] E,2C,2C,2C,2 | 
[V:5] C,3B,,A,,4 | 
[V:1] D8 | 
[V:2] z8 | 
[V:3] B4z2A2 | 
[V:4] G,4D,3E, | 
[V:5] G,,3A,,B,,C,D,2- | 
[V:1] z8 | 
[V:2] z8 | 
[V:3] B2c2d4- | 
[V:4] F,G,A,3G,B,2- | 
[V:5] D,2C,2B,,2G,,2- | 
[V:1] z8 | 
[V:2] z8 | 
[V:3] d2B2c4 | 
[V:4] B,A,G,4^F,2 | 
[V:5] G,,2B,,2A,,4 | 
[V:1] D6D2 | 
[V:2] z8 | 
[V:3] B8 | 
[V:4] G,8 | 
[V:5] G,,8- | 
[V:1] E2D4G2- | 
[V:2] z8 | 
[V:3] z2B4B2 | 
[V:4] z2G,2G,3F, | 
[V:5] G,,8 | 
[V:1] G2E2F4 | 
[V:2] z8 | 
[V:3] c4d4 | 
[V:4] E,4D,2F,2- | 
[V:5] z8 | 
[V:1] F4E4 | 
[V:2] z8 | 
[V:3] A2B2c4 | 
[V:4] F,E,D,2C,3D, | 
[V:5] z8 | 
[V:1] G3FD2F2 | 
[V:2] z8 | 
[V:3] G3ABcd2- | 
[V:4] E,F,G,3F,D,2 | 
[V:5] z8 | 
[V:1] E4D3E | 
[V:2] z8 | 
[V:3] d2^c2d3=c | 
[V:4] A,4D,4 | 
[V:5] z8 | 
[V:1] FGA4^G2 | 
[V:2] z8 | 
[V:3] A2c2B4 | 
[V:4] z8 | 
[V:5] z8 | 
[V:1] A2E4A2- | 
[V:2] c4c2A2- | 
[V:3] A4z2c2- | 
[V:4] z8 | 
[V:5] A,,4A,,2F,,2- | 
[V:1] A2G2F2E2 | 
[V:2] A2d2c3B | 
[V:3] c2B2A2G2 | 
[V:4] z8 | 
[V:5] F,,2G,,2A,,2C,2 | 
[V:1] D2C2D4 | 
[V:2] BAA4^G2 | 
[V:3] F2E4D2 | 
[V:4] z8 | 
[V:5] D,2A,,2B,,4 | 
[V:1] C8 | 
[V:2] A8 | 
[V:3] E8 | 
[V:4] z8 | 
[V:5] A,,8 | 
[V:1] z2G4G2 | 
[V:2] z2B4B2 | 
[V:3] z8 | 
[V:4] E,6E,2 | 
[V:5] z8 | 
[V:1] G2G2E3F | 
[V:2] B2cBc4- | 
[V:3] z8 | 
[V:4] E,4C,3D, | 
[V:5] z8 | 
[V:1] G2A4G2 | 
[V:2] c2BAB4 | 
[V:3] z8 | 
[V:4] E,2F,2E,4 | 
[V:5] z8 | 
[V:1] A2G2A2c2- | 
[V:2] A2B2c2e2- | 
[V:3] z8 | 
[V:4] z2E,2A,4 | 
[V:5] z8 | 
[V:1] c2BAB4 | 
[V:2] e2dcd4 | 
[V:3] z8 | 
[V:4] G,8 | 
[V:5] G,,8 | 
[V:1] z2E2E3F | 
[V:2] c8 | 
[V:3] A8 | 
[V:4] C,8 | 
[V:5] A,,2C,3B,,A,,2 | 
[V:1] G2A3GFE | 
[V:2] z8 | 
[V:3] B2c3BAG | 
[V:4] z8 | 
[V:5] G,,2F,,3G,,A,,2 | 
[V:1] D2C2G4- | 
[V:2] z2c2dcBA | 
[V:3] F2E2D4- | 
[V:4] z2G,2G,4 | 
[V:5] B,,2C,2G,,4- | 
[V:1] G4E3F | 
[V:2] B4c4- | 
[V:3] D4E4- | 
[V:4] G,4G,4- | 
[V:5] G,,4C,4 | 
[V:1] G2A4G2 | 
[V:2] c4c4 | 
[V:3] E4z4 | 
[V:4] G,2E,2F,2E,2 | 
[V:5] z2A,,3B,,C,2 | 
[V:1] F2E2D4 | 
[V:2] z2c2d2B2 | 
[V:3] z2A4G2 | 
[V:4] A,4D,4 | 
[V:5] D,2A,,2B,,4 | 
[V:1] C4z2G2 | 
[V:2] c3de4 | 
[V:3] A4E4 | 
[V:4] E,4z2E,2 | 
[V:5] A,,3B,,C,2C,2 | 
[V:1] A3GF2E2 | 
[V:2] A3Bcde2 | 
[V:3] c3BA2G2 | 
[V:4] F,4C,4 | 
[V:5] F,,3G,,A,,B,,C,2 | 
[V:1] D2F4ED | 
[V:2] fedcd2d2 | 
[V:3] F4D4 | 
[V:4] z8 | 
[V:5] D,C,B,,A,,B,,4 | 
[V:1] C8- | 
[V:2] e8- | 
[V:3] A8 | 
[V:4] C,6E,2 | 
[V:5] A,,8- | 
[V:1] C8 ||  
[V:2] e8 ||  
[V:3] A8 ||  
[V:4] E,8 ||  
[V:5] A,,8 ||  
[V:1]  [K:C] [K:clef=treble][M:2/1]z8 | 
[V:2]  [K:C] [K:clef=treble-8][M:2/1]E4E3F | 
[V:3]  [K:C] [K:clef=treble-8][M:2/1]c8- | 
[V:4]  [K:C] [K:clef=bass][M:2/1]A,,4C,3D, | 
[V:5]  [K:C] [K:clef=bass][M:2/1]z8 | 
[V:1] z4E4 | 
[V:2] G2A4G2 | 
[V:3] c8 | 
[V:4] E,2F,2E,4 | 
[V:5] z8 | 
[V:1] E3FG2A2- | 
[V:2] A2E4e2- | 
[V:3] c8- | 
[V:4] A,,4z2A,,2 | 
[V:5] z8 | 
[V:1] A2G2A2E2- | 
[V:2] e2e2A4 | 
[V:3] c8 | 
[V:4] E,4F,2A,2 | 
[V:5] z8 | 
[V:1] E2G2G2G2 | 
[V:2] B2G3ABc | 
[V:3] B8- | 
[V:4] G,2E,4G,2- | 
[V:5] z8 | 
[V:1] D2G3FED | 
[V:2] d2G2G4 | 
[V:3] B8 | 
[V:4] G,F,E,D,E,4 | 
[V:5] z8 | 
[V:1] C8 | 
[V:2] z8 | 
[V:3] A8 | 
[V:4] z2E,2E,3D, | 
[V:5] A,,4A,,3B,, | 
[V:1] z8 | 
[V:2] z8 | 
[V:3] A8- | 
[V:4] E,2F,4E,2 | 
[V:5] C,2D,4C,2 | 
[V:1] z8 | 
[V:2] z8 | 
[V:3] A8 | 
[V:4] F,2C,4F,2- | 
[V:5] D,2A,,4D,2- | 
[V:1] z8 | 
[V:2] z8 | 
[V:3] B8- | 
[V:4] F,E,D,C,D,2E,2- | 
[V:5] D,C,B,,A,,G,,2G,2- | 
[V:1] z8 | 
[V:2] z4d4 | 
[V:3] B8 | 
[V:4] E,F,G,4F,2 | 
[V:5] G,2F,E,D,4 | 
[V:1] G6G2 | 
[V:2] e6e2 | 
[V:3] c8 | 
[V:4] G,8- | 
[V:5] C,8 | 
[V:1] G4G4 | 
[V:2] e4e4 | 
[V:3] z4G4- | 
[V:4] G,8 | 
[V:5] C,4C,4 | 
[V:1] E3FG2A2- | 
[V:2] c4d2c2 | 
[V:3] G2A2B2c2 | 
[V:4] z8 | 
[V:5] C,4B,,2A,,2- | 
[V:1] A2B2c2B2- | 
[V:2] B4E4 | 
[V:3] d3cA2B2 | 
[V:4] z8 | 
[V:5] A,,2G,,2A,,2G,,2 | 
[V:1] BAA4^G2 | 
[V:2] E8 | 
[V:3] c3AB4 | 
[V:4] z8 | 
[V:5] A,,4E,,4 | 
[V:1] A8 | 
[V:2] z4A3B | 
[V:3] A8- | 
[V:4] z8 | 
[V:5] A,,3B,,C,2D,2- | 
[V:1] z8 | 
[V:2] c2d3ef2 | 
[V:3] A8 | 
[V:4] z8 | 
[V:5] D,E,F,4E,D, | 
[V:1] z8 | 
[V:2] e2d4^c2 | 
[V:3] z8 | 
[V:4] z4G,4 | 
[V:5] C,2D,2E,4 | 
[V:1] z4A4- | 
[V:2] d8 | 
[V:3] z8 | 
[V:4] A,4A,4 | 
[V:5] D,8 | 
[V:1] A2A2A4 | 
[V:2] d4d4 | 
[V:3] z8 | 
[V:4] F,4F,4 | 
[V:5] D,4D,4 | 
[V:1] c4c4 | 
[V:2] c4G2A2 | 
[V:3] z8 | 
[V:4] E,6F,2 | 
[V:5] A,,4C,4 | 
[V:1] B4A2B2- | 
[V:2] B2d2cB2A | 
[V:3] d8- | 
[V:4] G,4A,2G,2- | 
[V:5] G,,4F,,2G,,2- | 
[V:1] BAG2F2G2- | 
[V:2] G4z2G2- | 
[V:3] d8- | 
[V:4] G,F,E,2D,4 | 
[V:5] G,,A,,B,,C,D,2G,,2 | 
[V:1] G2FED4 | 
[V:2] GABcd2B2 | 
[V:3] d8 | 
[V:4] G,8- | 
[V:5] G,,8 | 
[V:1] C4G4- | 
[V:2] c8 | 
[V:3] e8 | 
[V:4] G,4G,4 | 
[V:5] C,8- | 
[V:1] G4G4 | 
[V:2] c4c4 | 
[V:3] e8- | 
[V:4] G,8 | 
[V:5] C,8- | 
[V:1] G4G4 | 
[V:2] c8 | 
[V:3] e8 | 
[V:4] G,4E,4 | 
[V:5] C,8 | 
[V:1] A6G2 | 
[V:2] c3defe2- | 
[V:3] A8- | 
[V:4] F,3E,C,2C,2 | 
[V:5] z8 | 
[V:1] F2EDE4 | 
[V:2] e2d3^c^c2 | 
[V:3] A8 | 
[V:4] D,4A,4 | 
[V:5] z8 | 
[V:1] D4G4 | 
[V:2] d4z4 | 
[V:3] d8 | 
[V:4] D,2G,3A,B,2 | 
[V:5] z8 | 
[V:1] F2E4D2 | 
[V:2] z8 | 
[V:3] c4A4 | 
[V:4] A,2E,2F,4 | 
[V:5] z8 | 
[V:1] E8- | 
[V:2] z2G3AB2 | 
[V:3] B8- | 
[V:4] E,8 | 
[V:5] z4E,3F, | 
[V:1] E8 | 
[V:2] E3FGAB2- | 
[V:3] B8 | 
[V:4] z8 | 
[V:5] G,2E,4E,2 | 
[V:1] z8 | 
[V:2] B2A4^G2 | 
[V:3] z4B4 | 
[V:4] z8 | 
[V:5] D,C,B,,A,,B,,4 | 
[V:1] z8 | 
[V:2] A8 | 
[V:3] c6B2 | 
[V:4] z8 | 
[V:5] A,,3B,,C,2D,2- | 
[V:1] z8 | 
[V:2] z4d4 | 
[V:3] A4G4 | 
[V:4] z8 | 
[V:5] D,A,,C,2B,,4 | 
[V:1] z8 | 
[V:2] c3BAGF2 | 
[V:3] A8 | 
[V:4] z8 | 
[V:5] A,,3B,,C,2D,2- | 
[V:1] z8 | 
[V:2] A2G4^F2 | 
[V:3] z4A4 | 
[V:4] z8 | 
[V:5] D,C,B,,2A,,4 | 
[V:1] z8 | 
[V:2] G8 | 
[V:3] B6G2 | 
[V:4] z8 | 
[V:5] G,,3A,,B,,2C,2- | 
[V:1] z8 | 
[V:2] z8 | 
[V:3] A4F2G2- | 
[V:4] z8 | 
[V:5] C,2A,,4G,,2 | 
[V:1] z8 | 
[V:2] z8 | 
[V:3] GFE4D2 | 
[V:4] z8 | 
[V:5] E,,2G,,2F,,4 | 
[V:1] z2E2E2E2 | 
[V:2] z8 | 
[V:3] E8 | 
[V:4] z4z2E,2 | 
[V:5] E,,8 | 
[V:1] G3FE2D2- | 
[V:2] z8 | 
[V:3] z8 | 
[V:4] E,2E,2G,3A, | 
[V:5] z8 | 
[V:1] DCB,A,B,4 | 
[V:2] z8 | 
[V:3] z8 | 
[V:4] B,2A,4^G,2 | 
[V:5] z8 | 
[V:1] A,4E4- | 
[V:2] c8- | 
[V:3] z8 | 
[V:4] A,4A,4- | 
[V:5] A,,8- | 
[V:1] E4E4 | 
[V:2] c4c4 | 
[V:3] z8 | 
[V:4] A,4A,4 | 
[V:5] A,,4A,,4 | 
[V:1] E4E4 | 
[V:2] c4c4 | 
[V:3] z8 | 
[V:4] E,4E,4 | 
[V:5] A,,4A,,4 | 
[V:1] G6FE | 
[V:2] G6A2 | 
[V:3] B8- | 
[V:4] E,4G,4- | 
[V:5] E,,4E,,4 | 
[V:1] D4G4 | 
[V:2] B2c2d4 | 
[V:3] B8 | 
[V:4] G,2F,E,D,4 | 
[V:5] G,,8 | 
[V:1] E3FG2A2- | 
[V:2] G4c4 | 
[V:3] c8 | 
[V:4] C,4z4 | 
[V:5] C,3D,E,2F,2- | 
[V:1] A2G3^FF2 | 
[V:2] d2e2d4 | 
[V:3] A8 | 
[V:4] z8 | 
[V:5] F,E,C,2D,4 | 
[V:1] G8 | 
[V:2] B8 | 
[V:3] G8- | 
[V:4] z4D,4 | 
[V:5] G,,8 | 
[V:1] z4z2G2- | 
[V:2] z2e4e2- | 
[V:3] G8 | 
[V:4] E,2E,4G,2- | 
[V:5] z2C,4C,2- | 
[V:1] G2G4G2 | 
[V:2] e2e2c2c2 | 
[V:3] c8 | 
[V:4] G,F,E,D,E,4 | 
[V:5] C,2C,2C,2C,2 | 
[V:1] G4G4 | 
[V:2] dcBAG4 | 
[V:3] B8- | 
[V:4] D,4z2D,2 | 
[V:5] G,,8- | 
[V:1] D8 | 
[V:2] z2G2d4- | 
[V:3] B8 | 
[V:4] G,6G,2 | 
[V:5] G,,4z2G,,2 | 
[V:1] z2D2A4- | 
[V:2] d2d2d2cB | 
[V:3] A8 | 
[V:4] F,4F,4- | 
[V:5] D,6D,2 | 
[V:1] A2A2A2GF | 
[V:2] A3Bcde2- | 
[V:3] A4A4 | 
[V:4] F,2E,D,C,3D, | 
[V:5] D,2C,B,,A,,2C,2- | 
[V:1] E2G2F4 | 
[V:2] edc4B2 | 
[V:3] G2E2F4 | 
[V:4] E,4z4 | 
[V:5] C,2E,2D,4 | 
[V:1] E6D2 | 
[V:2] c8 | 
[V:3] G2A3GG2- | 
[V:4] E,4C,4 | 
[V:5] C,6B,,2 | 
[V:1] C4B,4 | 
[V:2] z4z2d2- | 
[V:3] G2^F2G4 | 
[V:4] C,4D,4 | 
[V:5] A,,4G,,4 | 
[V:1] z4z2B2- | 
[V:2] d2d4d2 | 
[V:3] D8- | 
[V:4] G,6F,E, | 
[V:5] G,,4G,,4- | 
[V:1] B2B4B2 | 
[V:2] d2d2d4 | 
[V:3] D8 | 
[V:4] D,4G,4- | 
[V:5] G,,2G,,2G,,2G,,2 | 
[V:1] c2c3BAG | 
[V:2] c8 | 
[V:3] z8 | 
[V:4] G,4G,4 | 
[V:5] C,3D,E,4 | 
[V:1] F4G4 | 
[V:2] d2d4c2 | 
[V:3] z8 | 
[V:4] A,2A,4G,2 | 
[V:5] D,2F,2E,4 | 
[V:1] FGABA2G2- | 
[V:2] d2cBcBAG | 
[V:3] z8 | 
[V:4] A,4z4 | 
[V:5] D,4z4 | 
[V:1] G2^F2G2E2- | 
[V:2] A4G4 | 
[V:3] z8 | 
[V:4] z4z2G,2 | 
[V:5] z8 | 
[V:1] E2F3ED2- | 
[V:2] z8 | 
[V:3] z8 | 
[V:4] A,2G,F,G,F,E,D, | 
[V:5] z8 | 
[V:1] D2^C2D4 | 
[V:2] z8 | 
[V:3] z8 | 
[V:4] E,4D,4 | 
[V:5] z8 | 
[V:1] z4z2D2 | 
[V:2] z8 | 
[V:3] F8 | 
[V:4] z2D,2D,2D,2- | 
[V:5] D,8 | 
[V:1] D2D3EFG | 
[V:2] z8 | 
[V:3] F8- | 
[V:4] D,E,F,G,A,4- | 
[V:5] D,4D,4 | 
[V:1] A2B2c4 | 
[V:2] z8 | 
[V:3] F8 | 
[V:4] A,4A,4 | 
[V:5] A,,4A,,4 | 
[V:1] B4B2G2- | 
[V:2] d4d2d2 | 
[V:3] G8 | 
[V:4] D,8 | 
[V:5] G,,8- | 
[V:1] G2FED2G2 | 
[V:2] B2d4cB | 
[V:3] G8 | 
[V:4] D,4D,4 | 
[V:5] G,,8 | 
[V:1] E2F4E2- | 
[V:2] c2d2A4 | 
[V:3] A8- | 
[V:4] E,2D,2E,4 | 
[V:5] z2D,4C,2 | 
[V:1] E2D2E4 | 
[V:2] z2A2c2c2 | 
[V:3] A8 | 
[V:4] F,4E,4- | 
[V:5] D,4A,,4 | 
[V:1] z2E2G2G2 | 
[V:2] B4B2e2- | 
[V:3] G8- | 
[V:4] E,4z2E,2 | 
[V:5] E,,8- | 
[V:1] G4G4 | 
[V:2] e2dcB4 | 
[V:3] G8 | 
[V:4] E,2E,2E,4 | 
[V:5] E,,8 | 
[V:1] A4A2F2- | 
[V:2] A8- | 
[V:3] F8- | 
[V:4] C,8 | 
[V:5] F,,8- | 
[V:1] F2EDC2D2 | 
[V:2] A8 | 
[V:3] F8 | 
[V:4] D,2C,2F,4 | 
[V:5] F,,4F,,4 | 
[V:1] E2F2G2G2- | 
[V:2] z4c4 | 
[V:3] E8- | 
[V:4] G,8 | 
[V:5] C,6B,,A,, | 
[V:1] GFEDC4 | 
[V:2] B2B2A4 | 
[V:3] E8- | 
[V:4] z4z2C,2- | 
[V:5] G,,4A,,4 | 
[V:1] z4z2A2 | 
[V:2] z2A2c3B | 
[V:3] E8 | 
[V:4] C,D,E,F,G,2C,2 | 
[V:5] A,,B,,C,D,E,2A,,2 | 
[V:1] c3BA2G2 | 
[V:2] A2G2F2E2 | 
[V:3] z4c4 | 
[V:4] C,8 | 
[V:5] A,,8 | 
[V:1] F2E2G4 | 
[V:2] A4G4 | 
[V:3] c6B2 | 
[V:4] C,3D,E,4 | 
[V:5] A,,4E,,4 | 
[V:1] F4E4 | 
[V:2] c4B4 | 
[V:3] A4G4 | 
[V:4] A,,4B,,4 | 
[V:5] F,,4G,,4 | 
[V:1] z2A4G2 | 
[V:2] A8 | 
[V:3] F4E4 | 
[V:4] C,8 | 
[V:5] A,,8 | 
[V:1] E2G3FE2- | 
[V:2] B8 | 
[V:3] G8 | 
[V:4] B,,8 | 
[V:5] G,,4E,,4 | 
[V:1] E2DCD4 | 
[V:2] z8 | 
[V:3] F8 | 
[V:4] z4D,4 | 
[V:5] A,,4B,,4 | 
[V:1] E8 | 
[V:2] z4A4 | 
[V:3] E8 | 
[V:4] B,,4C,2E,2- | 
[V:5] G,,4A,,4 | 
[V:1] E8- | 
[V:2] G3EG2A2 | 
[V:3] E8- | 
[V:4] E,2D,2C,4 | 
[V:5] E,,8 | 
[V:1] E8- | 
[V:2] B8 | 
[V:3] E8- | 
[V:4] B,,8- | 
[V:5] E,,8- | 
[V:1] E8 |]  
[V:2] B8 |]  
[V:3] E8 |]  
[V:4] B,,8 |]  
[V:5] E,,8 |]  



